icon/pk/pregnant-women.svg

<svg viewBox="0 0 48 48" fill="none" xmlns="http://www.w3.org/2000/svg" height="1em" width="1em">
  <path d="M33 4V11.5186C40.3124 15.7131 43.6144 21.2939 42.9062 28.261C42.1979 35.2281 38.8959 40.4745 33 44" stroke="black" stroke-width="4" stroke-linecap="round" stroke-linejoin="round"/>
  <path d="M13.7722 4C11.6342 4.36936 10.0954 5.62186 9.15593 7.7575C7.74671 10.961 5 21.9637 5 23.7258C5 25.488 8.56767 30.2348 17.0518 37.4356C20.9831 40.7722 23.3065 40.602 24.5648 38.3638C25.8231 36.1256 24.1585 34.6902 22.0496 33.0368C18.1867 30.0083 13.102 25.215 13.102 23.111C13.102 21.7083 14.4186 17.4336 17.0518 10.287" stroke="black" stroke-width="4" stroke-linecap="round" stroke-linejoin="round"/>
  <path d="M8.20117 28.9409C8.71547 33.9209 9.64845 38.9209 11.0001 43.9409" stroke="black" stroke-width="4" stroke-linecap="round"/>
  <path d="M33 19.9443C34.5469 20.972 35.5469 22.3094 36 23.9564C36.4531 25.6035 36.5852 27.1055 36.3963 28.4624" stroke="black" stroke-width="4" stroke-linecap="round"/>
</svg>

<svg width="48" height="48" fill="none" xmlns="http://www.w3.org/2000/svg"><path d="M33 4v7.519c7.312 4.194 10.614 9.775 9.906 16.742C42.198 35.228 38.896 40.474 33 44M13.772 4c-2.138.37-3.677 1.622-4.616 3.758C7.746 10.96 5 21.963 5 23.726c0 1.762 3.568 6.509 12.052 13.71 3.931 3.336 6.255 3.166 7.513.928s-.407-3.674-2.515-5.327c-3.863-3.029-8.948-7.822-8.948-9.926 0-1.403 1.317-5.677 3.95-12.824" stroke="#000" stroke-width="4" stroke-linecap="round" stroke-linejoin="round"/><path d="M8.201 28.94a95.28 95.28 0 0 0 2.8 15M33 19.944c1.547 1.028 2.547 2.365 3 4.012.453 1.648.585 3.15.396 4.506" stroke="#000" stroke-width="4" stroke-linecap="round"/></svg>
